icons/svg/seamark_big/small_craft_facility_laundrette.svg

<?xml version="1.0" encoding="UTF-8" standalone="no"?>
<svg
   xmlns:dc="http://purl.org/dc/elements/1.1/"
   xmlns:cc="http://creativecommons.org/ns#"
   xmlns:rdf="http://www.w3.org/1999/02/22-rdf-syntax-ns#"
   xmlns:svg="http://www.w3.org/2000/svg"
   xmlns="http://www.w3.org/2000/svg"
   xmlns:sodipodi="http://sodipodi.sourceforge.net/DTD/sodipodi-0.dtd"
   xmlns:inkscape="http://www.inkscape.org/namespaces/inkscape"
   width="1060"
   height="1060"
   id="svg2"
   version="1.1"
   inkscape:version="0.48.4 r9939"
   sodipodi:docname="small_craft_facility_visitors_mooring.svg">
  <defs
     id="defs13">
    <marker
       inkscape:stockid="TriangleOutM"
       orient="auto"
       refY="0.0"
       refX="0.0"
       id="TriangleOutM"
       style="overflow:visible">
      <path
         id="path4014"
         d="M 5.77,0.0 L -2.88,5.0 L -2.88,-5.0 L 5.77,0.0 z "
         style="fill-rule:evenodd;stroke:#000000;stroke-width:1.0pt"
         transform="scale(0.4)" />
    </marker>
    <marker
       inkscape:stockid="TriangleOutS"
       orient="auto"
       refY="0.0"
       refX="0.0"
       id="TriangleOutS"
       style="overflow:visible">
      <path
         id="path4017"
         d="M 5.77,0.0 L -2.88,5.0 L -2.88,-5.0 L 5.77,0.0 z "
         style="fill-rule:evenodd;stroke:#000000;stroke-width:1.0pt"
         transform="scale(0.2)" />
    </marker>
    <marker
       inkscape:stockid="Arrow2Send"
       orient="auto"
       refY="0.0"
       refX="0.0"
       id="Arrow2Send"
       style="overflow:visible;">
      <path
         id="path3902"
         style="fill-rule:evenodd;stroke-width:0.62500000;stroke-linejoin:round;"
         d="M 8.7185878,4.0337352 L -2.2072895,0.016013256 L 8.7185884,-4.0017078 C 6.9730900,-1.6296469 6.9831476,1.6157441 8.7185878,4.0337352 z "
         transform="scale(0.3) rotate(180) translate(-2.3,0)" />
    </marker>
    <marker
       inkscape:stockid="Arrow1Send"
       orient="auto"
       refY="0.0"
       refX="0.0"
       id="Arrow1Send"
       style="overflow:visible;">
      <path
         id="path3884"
         d="M 0.0,0.0 L 5.0,-5.0 L -12.5,0.0 L 5.0,5.0 L 0.0,0.0 z "
         style="fill-rule:evenodd;stroke:#000000;stroke-width:1.0pt;"
         transform="scale(0.2) rotate(180) translate(6,0)" />
    </marker>
    <marker
       inkscape:stockid="Arrow1Lend"
       orient="auto"
       refY="0.0"
       refX="0.0"
       id="Arrow1Lend"
       style="overflow:visible;">
      <path
         id="path3872"
         d="M 0.0,0.0 L 5.0,-5.0 L -12.5,0.0 L 5.0,5.0 L 0.0,0.0 z "
         style="fill-rule:evenodd;stroke:#000000;stroke-width:1.0pt;"
         transform="scale(0.8) rotate(180) translate(12.5,0)" />
    </marker>
    <inkscape:path-effect
       effect="gears"
       id="path-effect3774"
       is_visible="true"
       teeth="6"
       phi="-1.2" />
    <inkscape:path-effect
       effect="bend_path"
       id="path-effect3772"
       is_visible="false"
       bendpath="m 95.790098,316.51174 c 144.429032,-206.42506 223.313032,-11.7428 339.548092,0"
       prop_scale="1.19"
       scale_y_rel="false"
       vertical="false"
       bendpath-nodetypes="cc" />
  </defs>
  <sodipodi:namedview
     pagecolor="#ffffff"
     bordercolor="#666666"
     borderopacity="1"
     objecttolerance="10"
     gridtolerance="10"
     guidetolerance="10"
     inkscape:pageopacity="0"
     inkscape:pageshadow="2"
     inkscape:window-width="1920"
     inkscape:window-height="1004"
     id="namedview11"
     showgrid="false"
     inkscape:zoom="1.1508772"
     inkscape:cx="535.72301"
     inkscape:cy="552.63603"
     inkscape:window-x="1680"
     inkscape:window-y="0"
     inkscape:window-maximized="1"
     inkscape:current-layer="svg2"
     inkscape:snap-object-midpoints="true"
     inkscape:snap-center="true"
     inkscape:snap-global="true"
     inkscape:snap-midpoints="true"
     inkscape:object-nodes="true"
     inkscape:snap-smooth-nodes="true"
     inkscape:object-paths="true">
    <inkscape:grid
       type="xygrid"
       id="grid2989" />
  </sodipodi:namedview>
  <metadata
     id="metadata2975">image/svg+xmlen<rdf:RDF>
  <cc:Work
     rdf:about="">
    <dc:format>image/svg+xml</dc:format>
    <dc:type
       rdf:resource="http://purl.org/dc/dcmitype/StillImage" />
    <dc:title></dc:title>
  </cc:Work>
</rdf:RDF>
</metadata>
  <path
     inkscape:connector-curvature="0"
     d="M 618.17463,399.37094 H 441.82539 c -10.88576,0 -20.68294,9.79718 -20.68294,20.68293 v 219.89226 c 0,10.88576 9.79718,20.68294 20.68294,20.68294 h 176.34924 c 11.97433,0 20.68293,-9.79718 20.68293,-20.68294 V 420.05387 c 0,-10.88575 -9.79718,-20.68293 -20.68293,-20.68293 z m -88.17462,195.9436 c -35.923,0 -65.31454,-29.39154 -65.31454,-65.31454 0,-35.92299 29.39154,-65.31453 65.31454,-65.31453 35.92299,0 65.31453,29.39154 65.31453,65.31453 0,35.923 -29.39154,65.31454 -65.31453,65.31454 z m 0,-10.88576 c -30.48012,0 -54.42878,-23.94866 -54.42878,-54.42878 0,0 10.88575,-8.7086 21.77151,-8.7086 10.88575,0 21.77151,8.7086 32.65727,8.7086 9.79718,0 20.68293,-8.7086 32.65726,-8.7086 11.97433,0 21.77151,8.7086 21.77151,8.7086 0,30.48012 -23.94866,54.42878 -54.42877,54.42878 z M 617.08605,432.0282 c 0,6.53146 -4.3543,10.88576 -10.88576,10.88576 -6.53145,0 -10.88575,-4.3543 -10.88575,-10.88576 0,-6.53145 4.3543,-10.88575 10.88575,-10.88575 6.53146,0 10.88576,4.3543 10.88576,10.88575 z m -32.65727,0 c 0,6.53146 -4.3543,10.88576 -10.88575,10.88576 -6.53146,0 -10.88576,-4.3543 -10.88576,-10.88576 0,-6.53145 4.3543,-10.88575 10.88576,-10.88575 6.53144,0 10.88575,4.3543 10.88575,10.88575 z"
     id="path3"
     style="color:#000000;fill:#930093;fill-opacity:1;fill-rule:nonzero;stroke:none;stroke-width:10;marker:none;visibility:visible;display:inline;overflow:visible;enable-background:accumulate" />
</svg>

<svg width="1060" height="1060" viewBox="0 0 1060 1060" fill="none" xmlns="http://www.w3.org/2000/svg">
<path d="M618.175 399.371H441.825C430.94 399.371 421.142 409.168 421.142 420.054V639.946C421.142 650.832 430.94 660.629 441.825 660.629H618.175C630.149 660.629 638.858 650.832 638.858 639.946V420.054C638.858 409.168 629.06 399.371 618.175 399.371ZM530 595.315C494.077 595.315 464.685 565.923 464.685 530C464.685 494.077 494.077 464.686 530 464.686C565.923 464.686 595.315 494.077 595.315 530C595.315 565.923 565.923 595.315 530 595.315ZM530 584.429C499.52 584.429 475.571 560.48 475.571 530C475.571 530 486.457 521.292 497.343 521.292C508.228 521.292 519.114 530 530 530C539.797 530 550.683 521.292 562.657 521.292C574.632 521.292 584.429 530 584.429 530C584.429 560.48 560.48 584.429 530 584.429ZM617.086 432.028C617.086 438.56 612.732 442.914 606.2 442.914C599.669 442.914 595.315 438.56 595.315 432.028C595.315 425.497 599.669 421.143 606.2 421.143C612.732 421.143 617.086 425.497 617.086 432.028ZM584.429 432.028C584.429 438.56 580.074 442.914 573.543 442.914C567.012 442.914 562.657 438.56 562.657 432.028C562.657 425.497 567.012 421.143 573.543 421.143C580.074 421.143 584.429 425.497 584.429 432.028Z" fill="#930093"/>
</svg>
